Newaita/actions/16/align-vertical-top.svg

<svg height="16" viewBox="0 0 16 16" width="16" xmlns="http://www.w3.org/2000/svg"><g fill="#424242"><path d="m14.554688 2.441406c0 .179688-.148438.328125-.332032.328125h-12.570312c-.179688 0-.328125-.148437-.328125-.328125 0-.183594.148437-.332031.328125-.332031h12.570312c.183594 0 .332032.148437.332032.332031zm0 0"/><path d="m13.5625 4.753906c0-.730468-.589844-1.320312-1.324219-1.320312h-2.644531c-.734375 0-1.324219.589844-1.324219 1.320312v7.941406c0 .730469.589844 1.320313 1.324219 1.320313h2.644531c.734375 0 1.324219-.589844 1.324219-1.320313zm-1.324219.332032v7.277343c0 .183594-.148437.332031-.332031.332031h-1.984375c-.183594 0-.328125-.148437-.328125-.332031v-7.277343c0-.183594.144531-.332032.328125-.332032h1.984375c.183594 0 .332031.148438.332031.332032zm0 0"/><path d="m6.945312 4.753906c0-.730468-.589843-1.320312-1.324218-1.320312h-1.984375c-.730469 0-1.320313.589844-1.320313 1.320312v3.972656c0 .730469.589844 1.320313 1.320313 1.320313h1.984375c.734375 0 1.324218-.589844 1.324218-1.320313zm-1.324218.332032v3.308593c0 .183594-.144532.332031-.328125.332031h-1.324219c-.183594 0-.332031-.148437-.332031-.332031v-3.308593c0-.183594.148437-.332032.332031-.332032h1.324219c.183593 0 .328125.148438.328125.332032zm0 0"/></g></svg>

<?xml version="1.0" encoding="UTF-8"?>
<svg xmlns="http://www.w3.org/2000/svg" xmlns:xlink="http://www.w3.org/1999/xlink" width="16px" height="16px" viewBox="0 0 16 16" version="1.1">
<g id="surface1">
<path style=" stroke:none;fill-rule:nonzero;fill:rgb(25.882354%,25.882354%,25.882354%);fill-opacity:1;" d="M 14.554688 2.441406 C 14.554688 2.621094 14.40625 2.769531 14.222656 2.769531 L 1.652344 2.769531 C 1.472656 2.769531 1.324219 2.621094 1.324219 2.441406 C 1.324219 2.257812 1.472656 2.109375 1.652344 2.109375 L 14.222656 2.109375 C 14.40625 2.109375 14.554688 2.257812 14.554688 2.441406 Z M 14.554688 2.441406 "/>
<path style=" stroke:none;fill-rule:nonzero;fill:rgb(25.882354%,25.882354%,25.882354%);fill-opacity:1;" d="M 13.5625 4.753906 C 13.5625 4.023438 12.972656 3.433594 12.238281 3.433594 L 9.59375 3.433594 C 8.859375 3.433594 8.269531 4.023438 8.269531 4.753906 L 8.269531 12.695312 C 8.269531 13.425781 8.859375 14.015625 9.59375 14.015625 L 12.238281 14.015625 C 12.972656 14.015625 13.5625 13.425781 13.5625 12.695312 Z M 12.238281 5.085938 L 12.238281 12.363281 C 12.238281 12.546875 12.089844 12.695312 11.90625 12.695312 L 9.921875 12.695312 C 9.738281 12.695312 9.59375 12.546875 9.59375 12.363281 L 9.59375 5.085938 C 9.59375 4.902344 9.738281 4.753906 9.921875 4.753906 L 11.90625 4.753906 C 12.089844 4.753906 12.238281 4.902344 12.238281 5.085938 Z M 12.238281 5.085938 "/>
<path style=" stroke:none;fill-rule:nonzero;fill:rgb(25.882354%,25.882354%,25.882354%);fill-opacity:1;" d="M 6.945312 4.753906 C 6.945312 4.023438 6.355469 3.433594 5.621094 3.433594 L 3.636719 3.433594 C 2.90625 3.433594 2.316406 4.023438 2.316406 4.753906 L 2.316406 8.726562 C 2.316406 9.457031 2.90625 10.046875 3.636719 10.046875 L 5.621094 10.046875 C 6.355469 10.046875 6.945312 9.457031 6.945312 8.726562 Z M 5.621094 5.085938 L 5.621094 8.394531 C 5.621094 8.578125 5.476562 8.726562 5.292969 8.726562 L 3.96875 8.726562 C 3.785156 8.726562 3.636719 8.578125 3.636719 8.394531 L 3.636719 5.085938 C 3.636719 4.902344 3.785156 4.753906 3.96875 4.753906 L 5.292969 4.753906 C 5.476562 4.753906 5.621094 4.902344 5.621094 5.085938 Z M 5.621094 5.085938 "/>
</g>
</svg>
